; generated by Slic3r 1.3.1-dev on 2022-01-31 at 16:14:04

; external perimeters extrusion width = 0.44mm (1.73mm^3/s)
; perimeters extrusion width = 0.56mm (5.63mm^3/s)
; infill extrusion width = 0.50mm (3.32mm^3/s)
; solid infill extrusion width = 0.56mm (1.88mm^3/s)
; top infill extrusion width = 0.56mm (1.41mm^3/s)

M107
M190 S66 ; set bed temperature and wait for it to be reached
M104 S206 ; set temperature
G28 ; home all axes
G1 Z5 F5000 ; lift nozzle

; Filament gcode

M109 S206 ; set temperature and wait for it to be reached
G21 ; set units to millimeters
G90 ; use absolute coordinates
M82 ; use absolute distances for extrusion
G92 E0
G92 E0
G1 Z0.160 F7800.000
G1 E-2.00000 F2400.00000
G92 E0
G1 X70.685 Y73.667 F7800.000
G1 E2.00000 F2400.00000
G1 F1800
G1 X72.446 Y72.136 E2.04479
G1 X74.619 Y71.284 E2.08957
G1 X76.000 Y71.143 E2.11622
G1 X144.000 Y71.143 E3.42131
G1 X146.300 Y71.540 E3.46610
G1 X148.333 Y72.685 E3.51089
G1 X149.864 Y74.446 E3.55567
G1 X150.716 Y76.619 E3.60046
G1 X150.857 Y78.000 E3.62711
G1 X150.857 Y130.000 E4.62512
G1 X150.460 Y132.300 E4.66991
G1 X149.315 Y134.333 E4.71469
G1 X147.554 Y135.864 E4.75948
G1 X145.381 Y136.716 E4.80427
G1 X144.000 Y136.857 E4.83092
G1 X76.000 Y136.857 E6.13600
G1 X73.700 Y136.460 E6.18079
G1 X71.667 Y135.315 E6.22558
G1 X70.136 Y133.554 E6.27037
G1 X69.284 Y131.381 E6.31515
G1 X69.143 Y130.000 E6.34180
G1 X69.143 Y78.000 E7.33981
G1 X69.540 Y75.700 E7.38460
G1 X70.656 Y73.720 E7.42823
G1 X70.969 Y73.773 F7800.000
G1 F1800
G1 X72.719 Y72.306 E7.47207
G1 X76.000 Y71.429 E7.53725
G1 X144.000 Y71.429 E8.84233
G1 X146.249 Y71.826 E8.88617
G1 X148.227 Y72.969 E8.93001
G1 X149.694 Y74.719 E8.97385
G1 X150.571 Y78.000 E9.03902
G1 X150.571 Y130.000 E10.03703
G1 X150.174 Y132.249 E10.08087
G1 X149.031 Y134.227 E10.12471
G1 X147.281 Y135.694 E10.16854
G1 X144.000 Y136.571 E10.23372
G1 X76.000 Y136.571 E11.53881
G1 X73.751 Y136.174 E11.58265
G1 X71.773 Y135.031 E11.62648
G1 X70.306 Y133.281 E11.67032
G1 X69.429 Y130.000 E11.73550
G1 X69.429 Y78.000 E12.73350
G1 X69.826 Y75.751 E12.77734
G1 X70.939 Y73.825 E12.82003
G1 X71.252 Y73.882 F7800.000
G1 F1800
G1 X72.991 Y72.481 E12.86289
G1 X76.000 Y71.714 E12.92248
G1 X144.000 Y71.714 E14.22757
G1 X146.198 Y72.111 E14.27044
G1 X148.118 Y73.252 E14.31330
G1 X149.519 Y74.991 E14.35617
G1 X150.286 Y78.000 E14.41576
G1 X150.286 Y130.000 E15.41376
G1 X149.889 Y132.198 E15.45663
G1 X148.749 Y134.118 E15.49950
G1 X147.009 Y135.519 E15.54236
G1 X144.000 Y136.286 E15.60195
G1 X76.000 Y136.286 E16.90704
G1 X73.802 Y135.889 E16.94990
G1 X71.882 Y134.748 E16.99277
G1 X70.481 Y133.009 E17.03564
G1 X69.714 Y130.000 E17.09523
G1 X69.714 Y78.000 E18.09323
G1 X70.111 Y75.802 E18.13610
G1 X71.221 Y73.933 E18.17781
G1 E16.17781 F2400.00000
G92 E0
G1 X116.011 Y112.893 F7800.000
G1 E2.00000 F2400.00000
G1 F1800
G1 X114.421 Y113.781 E2.03494
G1 X112.705 Y114.388 E2.06988
G1 X110.910 Y114.695 E2.10483
G1 X109.090 Y114.695 E2.13977
G1 X107.295 Y114.388 E2.17471
G1 X105.579 Y113.781 E2.20965
G1 X103.989 Y112.893 E2.24459
G1 X102.573 Y111.749 E2.27954
G1 X101.370 Y110.383 E2.31448
G1 X100.415 Y108.832 E2.34942
G1 X99.737 Y107.143 E2.38436
G1 X99.353 Y105.363 E2.41930
G1 X99.276 Y103.544 E2.45425
G1 X99.507 Y101.739 E2.48919
G1 X100.040 Y99.998 E2.52413
G1 X100.860 Y98.372 E2.55907
G1 X101.942 Y96.908 E2.59401
G1 X103.257 Y95.649 E2.62895
G1 X104.765 Y94.629 E2.66390
G1 X106.424 Y93.879 E2.69884
G1 X108.186 Y93.420 E2.73378
G1 X110.000 Y93.266 E2.76872
G1 X111.814 Y93.420 E2.80366
G1 X113.576 Y93.879 E2.83861
G1 X115.235 Y94.629 E2.87355
G1 X116.743 Y95.649 E2.90849
G1 X118.058 Y96.908 E2.94343
G1 X119.140 Y98.372 E2.97837
G1 X119.960 Y99.998 E3.01332
G1 X120.493 Y101.739 E3.04826
G1 X120.724 Y103.544 E3.08320
G1 X120.647 Y105.363 E3.11814
G1 X120.263 Y107.143 E3.15308
G1 X119.585 Y108.832 E3.18803
G1 X118.630 Y110.383 E3.22297
G1 X117.427 Y111.749 E3.25791
G1 X116.057 Y112.856 E3.29170
G1 X115.850 Y112.656 F7800.000
G1 F1800
G1 X114.303 Y113.520 E3.32571
G1 X112.632 Y114.110 E3.35972
G1 X110.886 Y114.410 E3.39373
G1 X109.114 Y114.410 E3.42773
G1 X107.368 Y114.110 E3.46174
G1 X105.697 Y113.520 E3.49575
G1 X104.150 Y112.656 E3.52976
G1 X102.771 Y111.542 E3.56377
G1 X101.600 Y110.212 E3.59778
G1 X100.671 Y108.703 E3.63179
G1 X100.011 Y107.059 E3.66580
G1 X99.637 Y105.327 E3.69980
G1 X99.562 Y103.557 E3.73381
G1 X99.787 Y101.799 E3.76782
G1 X100.306 Y100.105 E3.80183
G1 X101.104 Y98.522 E3.83584
G1 X102.158 Y97.098 E3.86985
G1 X103.437 Y95.872 E3.90386
G1 X104.905 Y94.879 E3.93786
G1 X106.520 Y94.150 E3.97187
G1 X108.234 Y93.703 E4.00588
G1 X110.000 Y93.553 E4.03989
G1 X111.766 Y93.703 E4.07390
G1 X113.480 Y94.150 E4.10791
G1 X115.095 Y94.879 E4.14192
G1 X116.563 Y95.872 E4.17593
G1 X117.842 Y97.098 E4.20993
G1 X118.896 Y98.522 E4.24394
G1 X119.694 Y100.105 E4.27795
G1 X120.213 Y101.799 E4.31196
G1 X120.438 Y103.557 E4.34597
G1 X120.363 Y105.327 E4.37998
G1 X119.989 Y107.059 E4.41399
G1 X119.329 Y108.703 E4.44799
G1 X118.400 Y110.212 E4.48200
G1 X117.229 Y111.542 E4.51601
G1 X115.897 Y112.618 E4.54887
G1 X115.690 Y112.418 F7800.000
G1 F720
G1 X114.185 Y113.259 E4.58194
G1 X112.560 Y113.833 E4.61502
G1 X110.862 Y114.124 E4.64810
G1 X109.138 Y114.124 E4.68117
G1 X107.440 Y113.833 E4.71425
G1 X105.815 Y113.259 E4.74732
G1 X104.310 Y112.418 E4.78040
G1 X102.969 Y111.335 E4.81347
G1 X101.831 Y110.042 E4.84655
G1 X100.927 Y108.574 E4.87962
G1 X100.285 Y106.975 E4.91270
G1 X99.922 Y105.291 E4.94577
G1 X99.849 Y103.569 E4.97885
G1 X100.067 Y101.859 E5.01192
G1 X100.572 Y100.212 E5.04500
G1 X101.348 Y98.673 E5.07808
G1 X102.373 Y97.287 E5.11115
G1 X103.617 Y96.095 E5.14423
G1 X105.045 Y95.130 E5.17730
G1 X106.615 Y94.420 E5.21038
G1 X108.283 Y93.986 E5.24345
G1 X110.000 Y93.839 E5.27653
G1 X111.717 Y93.986 E5.30960
G1 X113.385 Y94.420 E5.34268
G1 X114.955 Y95.130 E5.37575
G1 X116.383 Y96.095 E5.40883
G1 X117.627 Y97.287 E5.44190
G1 X118.652 Y98.673 E5.47498
G1 X119.428 Y100.212 E5.50806
G1 X119.933 Y101.859 E5.54113
G1 X120.151 Y103.569 E5.57421
G1 X120.078 Y105.291 E5.60728
G1 X119.715 Y106.975 E5.64036
G1 X119.073 Y108.574 E5.67343
G1 X118.169 Y110.042 E5.70651
G1 X117.030 Y111.335 E5.73958
G1 X115.736 Y112.380 E5.77151
G1 X115.690 Y112.418 F7800.000
G1 E3.77151 F2400.00000
G92 E0
G1 X143.269 Y129.269 F7800.000
G1 E2.00000 F2400.00000
G1 F1800
G1 X76.731 Y129.269 E3.27702
G1 X76.731 Y78.731 E4.24695
G1 X143.269 Y78.731 E5.52397
G1 X143.269 Y129.209 E6.49275
G1 X143.554 Y129.554 F7800.000
G1 F1800
G1 X76.446 Y129.554 E7.78073
G1 X76.446 Y78.446 E8.76163
G1 X143.554 Y78.446 E10.04961
G1 X143.554 Y129.494 E11.02936
G1 X143.840 Y129.840 F7800.000
G1 F720
G1 X76.160 Y129.840 E12.32831
G1 X76.160 Y78.160 E13.32017
G1 X143.840 Y78.160 E14.61912
G1 X143.840 Y129.780 E15.60983
G1 X143.449 Y129.754 F7800.000
G1 E13.60983 F2400.00000
G92 E0
G1 X130.442 Y115.265 F7800.000
G1 E2.00000 F2400.00000
G1 F600
G1 X130.650 Y115.324 E2.00416
G1 X130.650 Y116.650 E2.02972
G1 X129.590 Y116.650 E2.05016
G1 X130.411 Y115.316 E2.08035
G1 X130.636 Y114.404 F7800.000
G1 F600
G1 X130.706 Y114.230 E2.08397
G1 X130.937 Y114.275 E2.08851
G1 X130.937 Y116.937 E2.13981
G1 X129.076 Y116.937 E2.17567
G1 X130.604 Y114.455 E2.23183
G1 X130.379 Y114.275 F7800.000
G1 F600
G1 X130.992 Y112.747 E2.26355
G1 X131.224 Y112.792 E2.26810
G1 X131.224 Y117.224 E2.35350
G1 X128.563 Y117.224 E2.40478
G1 X130.347 Y114.326 E2.47036
G1 X130.122 Y114.145 F7800.000
G1 F600
G1 X131.279 Y111.264 E2.53019
G1 X131.511 Y111.309 E2.53473
G1 X131.511 Y117.511 E2.65423
G1 X128.049 Y117.511 E2.72093
G1 X130.090 Y114.196 E2.79594
G1 X129.865 Y114.016 F7800.000
G1 F600
G1 X131.271 Y110.514 E2.86864
G1 X131.542 Y109.259 E2.89340
G1 X131.797 Y109.286 E2.89835
G1 X131.797 Y117.797 E3.06236
G1 X127.385 Y117.797 E3.14738
G1 X127.886 Y117.229 E3.16198
G1 X129.833 Y114.067 E3.23353
G1 X129.608 Y113.886 F7800.000
G1 F600
G1 X130.996 Y110.430 E3.30530
G1 X131.781 Y106.789 E3.37707
G1 X131.805 Y106.229 E3.38787
G1 X132.084 Y106.235 E3.39326
G1 X132.084 Y118.084 E3.62159
G1 X126.751 Y118.084 E3.72436
G1 X127.655 Y117.057 E3.75072
G1 X129.576 Y113.937 E3.82133
G1 E1.82133 F2400.00000
G92 E0
G1 X130.431 Y92.737 F7800.000
G1 E2.00000 F2400.00000
G1 F600
G1 X129.924 Y91.732 E2.02168
G1 X129.641 Y91.350 E2.03085
G1 X130.650 Y91.350 E2.05029
G1 X130.650 Y92.685 E2.07602
G1 X130.489 Y92.723 E2.07921
G1 X129.679 Y91.883 F7800.000
G1 F600
G1 X129.072 Y91.063 E2.09887
G1 X130.937 Y91.063 E2.13480
G1 X130.937 Y93.891 E2.18929
G1 X130.718 Y93.943 E2.19364
G1 X129.706 Y91.937 E2.23694
G1 X129.434 Y92.034 F7800.000
G1 F600
G1 X128.504 Y90.776 E2.26708
G1 X131.224 Y90.776 E2.31951
G1 X131.224 Y95.097 E2.40276
G1 X131.004 Y95.149 E2.40711
G1 X129.461 Y92.088 E2.47317
G1 X129.189 Y92.185 F7800.000
G1 F600
G1 X127.935 Y90.489 E2.51381
G1 X131.511 Y90.489 E2.58272
G1 X131.511 Y96.730 E2.70297
G1 X131.267 Y96.766 E2.70771
G1 X130.909 Y95.598 E2.73126
G1 X129.216 Y92.239 E2.80375
G1 X128.944 Y92.336 F7800.000
G1 F600
G1 X127.366 Y90.203 E2.85488
G1 X131.797 Y90.203 E2.94028
G1 X131.797 Y98.646 E3.10298
G1 X131.554 Y98.682 E3.10772
G1 X130.642 Y95.705 E3.16771
G1 X128.971 Y92.389 E3.23927
G1 X128.699 Y92.487 F7800.000
G1 F600
G1 X126.797 Y89.916 E3.30089
G1 X132.084 Y89.916 E3.40277
G1 X132.084 Y102.097 E3.63750
G1 X131.817 Y102.114 E3.64266
G1 X131.466 Y99.374 E3.69590
G1 X130.375 Y95.812 E3.76767
G1 X128.726 Y92.540 E3.83828
G1 X128.453 Y92.638 F7800.000
G1 F600
G1 X126.228 Y89.629 E3.91039
G1 X132.371 Y89.629 E4.02877
G1 X132.371 Y118.371 E4.58261
G1 X126.117 Y118.371 E4.70313
G1 X127.423 Y116.886 E4.74125
G1 X129.350 Y113.756 E4.81208
G1 X130.721 Y110.346 E4.88290
G1 X131.495 Y106.753 E4.95373
G1 X131.651 Y103.080 E5.02456
G1 X131.185 Y99.434 E5.09539
G1 X130.108 Y95.920 E5.16622
G1 X128.480 Y92.691 E5.23589
G1 X128.208 Y92.789 F7800.000
G1 F600
G1 X126.052 Y89.873 E5.30577
G1 X125.498 Y89.342 E5.32055
G1 X132.658 Y89.342 E5.45852
G1 X132.658 Y118.658 E6.02341
G1 X125.482 Y118.658 E6.16169
G1 X127.192 Y116.715 E6.21156
G1 X129.093 Y113.627 E6.28145
G1 X130.446 Y110.261 E6.35133
G1 X131.210 Y106.716 E6.42122
G1 X131.364 Y103.092 E6.49111
G1 X130.903 Y99.495 E6.56099
G1 X129.841 Y96.027 E6.63088
G1 X128.235 Y92.842 E6.69961
G1 X127.963 Y92.940 F7800.000
G1 F600
G1 X125.836 Y90.063 E6.76856
G1 X124.784 Y89.055 E6.79662
G1 X132.945 Y89.055 E6.95387
G1 X132.945 Y118.945 E7.52982
G1 X124.848 Y118.945 E7.68584
G1 X126.961 Y116.544 E7.74747
G1 X128.836 Y113.497 E7.81642
G1 X130.171 Y110.177 E7.88536
G1 X130.924 Y106.679 E7.95431
G1 X131.076 Y103.105 E8.02326
G1 X130.622 Y99.556 E8.09220
G1 X129.574 Y96.134 E8.16115
G1 X127.990 Y92.993 E8.22894
G1 X127.718 Y93.091 F7800.000
G1 F600
G1 X125.620 Y90.253 E8.29694
G1 X124.071 Y88.768 E8.33829
G1 X133.232 Y88.768 E8.51481
G1 X133.232 Y119.232 E9.10182
G1 X124.213 Y119.232 E9.27560
G1 X126.729 Y116.373 E9.34898
G1 X128.579 Y113.368 E9.41699
G1 X129.895 Y110.093 E9.48499
G1 X130.639 Y106.643 E9.55300
G1 X130.789 Y103.117 E9.62100
G1 X130.340 Y99.616 E9.68901
G1 X129.307 Y96.242 E9.75701
G1 X127.745 Y93.144 E9.82386
G1 X127.473 Y93.241 F7800.000
G1 F600
G1 X125.403 Y90.443 E9.89093
G1 X123.357 Y88.482 E9.94555
G1 X133.518 Y88.482 E10.14136
G1 X133.518 Y119.518 E10.73942
G1 X123.629 Y119.518 E10.92997
G1 X123.562 Y119.328 E10.93387
G1 X124.198 Y118.814 E10.94962
G1 X126.498 Y116.202 E11.01669
G1 X128.322 Y113.238 E11.08375
G1 X129.620 Y110.009 E11.15081
G1 X130.353 Y106.606 E11.21788
G1 X130.501 Y103.129 E11.28494
G1 X130.059 Y99.677 E11.35201
G1 X129.040 Y96.349 E11.41907
G1 X127.500 Y93.295 E11.48498
G1 X127.228 Y93.392 F7800.000
G1 F600
G1 X125.187 Y90.633 E11.55110
G1 X122.643 Y88.195 E11.61901
G1 X133.805 Y88.195 E11.83410
G1 X133.805 Y119.805 E12.44321
G1 X122.818 Y119.805 E12.65493
G1 X122.750 Y119.615 E12.65883
G1 X123.999 Y118.606 E12.68975
G1 X126.266 Y116.030 E12.75588
G1 X128.065 Y113.108 E12.82200
G1 X129.345 Y109.924 E12.88812
G1 X130.068 Y106.570 E12.95425
G1 X130.213 Y103.141 E13.02037
G1 X129.778 Y99.738 E13.08650
G1 X128.773 Y96.456 E13.15262
G1 X127.255 Y93.446 E13.21759
G1 X126.983 Y93.543 F7800.000
G1 F600
G1 X124.971 Y90.824 E13.28277
G1 X122.529 Y88.483 E13.34795
G1 X121.977 Y88.110 E13.36078
G1 X122.039 Y87.908 E13.36486
G1 X134.092 Y87.908 E13.59710
G1 X134.092 Y120.092 E14.21727
G1 X122.006 Y120.092 E14.45016
G1 X121.939 Y119.901 E14.45405
G1 X123.800 Y118.399 E14.50015
G1 X126.035 Y115.859 E14.56533
G1 X127.808 Y112.979 E14.63051
G1 X129.070 Y109.840 E14.69570
G1 X129.782 Y106.533 E14.76088
G1 X129.926 Y103.154 E14.82606
G1 X129.496 Y99.798 E14.89125
G1 X128.506 Y96.564 E14.95643
G1 X127.010 Y93.597 E15.02046
G1 X126.738 Y93.694 F7800.000
G1 F600
G1 X124.755 Y91.014 E15.08470
G1 X122.348 Y88.707 E15.14894
G1 X121.041 Y87.823 E15.17935
G1 X121.103 Y87.621 E15.18342
G1 X134.379 Y87.621 E15.43924
G1 X134.379 Y120.379 E16.07046
G1 X121.194 Y120.379 E16.32452
G1 X121.127 Y120.188 E16.32841
G1 X123.601 Y118.191 E16.38968
G1 X125.803 Y115.688 E16.45392
G1 X127.551 Y112.849 E16.51816
G1 X128.794 Y109.756 E16.58240
G1 X129.497 Y106.497 E16.64665
G1 X129.638 Y103.166 E16.71089
G1 X129.215 Y99.859 E16.77513
G1 X128.239 Y96.671 E16.83937
G1 X126.765 Y93.748 E16.90246
G1 X126.493 Y93.845 F7800.000
G1 F600
G1 X124.539 Y91.204 E16.96576
G1 X122.167 Y88.931 E17.02906
G1 X120.104 Y87.536 E17.07705
G1 X120.166 Y87.334 E17.08112
G1 X134.666 Y87.334 E17.36051
G1 X134.666 Y120.666 E18.00278
G1 X120.176 Y120.666 E18.28199
G1 X120.120 Y120.452 E18.28624
G1 X120.846 Y120.047 E18.30225
G1 X123.402 Y117.983 E18.36555
G1 X125.572 Y115.517 E18.42885
G1 X127.294 Y112.720 E18.49216
G1 X128.519 Y109.671 E18.55546
G1 X129.211 Y106.460 E18.61876
G1 X129.351 Y103.178 E18.68206
G1 X128.933 Y99.920 E18.74536
G1 X127.972 Y96.778 E18.80866
G1 X126.520 Y93.899 E18.87081
G1 X126.247 Y93.996 F7800.000
G1 F600
G1 X124.323 Y91.394 E18.93317
G1 X121.987 Y89.155 E18.99553
G1 X119.305 Y87.343 E19.05789
G1 X119.152 Y87.273 E19.06114
G1 X119.200 Y87.048 E19.06558
G1 X134.952 Y87.048 E19.36912
G1 X134.952 Y120.952 E20.02244
G1 X119.074 Y120.952 E20.32840
G1 X119.019 Y120.739 E20.33266
G1 X120.684 Y119.808 E20.36942
G1 X123.202 Y117.775 E20.43178
G1 X125.341 Y115.346 E20.49414
G1 X127.037 Y112.590 E20.55650
G1 X128.244 Y109.587 E20.61886
G1 X128.926 Y106.424 E20.68122
G1 X129.063 Y103.190 E20.74358
G1 X128.652 Y99.980 E20.80594
G1 X127.704 Y96.886 E20.86831
G1 X126.274 Y94.050 E20.92951
G1 X126.002 Y94.147 F7800.000
G1 F600
G1 X124.107 Y91.584 E20.99093
G1 X121.806 Y89.379 E21.05235
G1 X119.165 Y87.594 E21.11377
G1 X117.821 Y86.986 E21.14219
G1 X117.869 Y86.761 E21.14664
G1 X135.239 Y86.761 E21.48134
G1 X135.239 Y121.239 E22.14572
G1 X117.973 Y121.239 E22.47843
G1 X117.917 Y121.026 E22.48269
G1 X120.523 Y119.570 E22.54020
G1 X123.003 Y117.567 E22.60162
G1 X125.109 Y115.175 E22.66304
G1 X126.780 Y112.460 E22.72446
G1 X127.969 Y109.503 E22.78588
G1 X128.640 Y106.387 E22.84730
G1 X128.776 Y103.202 E22.90872
G1 X128.371 Y100.041 E22.97014
G1 X127.437 Y96.993 E23.03156
G1 X126.029 Y94.201 E23.09183
G1 X125.757 Y94.298 F7800.000
G1 F600
G1 X123.891 Y91.774 E23.15231
G1 X121.625 Y89.603 E23.21279
G1 X119.025 Y87.845 E23.27326
G1 X116.490 Y86.699 E23.32686
G1 X116.539 Y86.474 E23.33131
G1 X135.526 Y86.474 E23.69718
G1 X135.526 Y121.526 E24.37261
G1 X116.455 Y121.526 E24.74010
G1 X116.414 Y121.289 E24.74474
G1 X117.622 Y120.862 E24.76942
G1 X120.362 Y119.331 E24.82990
G1 X122.804 Y117.360 E24.89037
G1 X124.878 Y115.003 E24.95085
G1 X126.523 Y112.331 E25.01133
G1 X127.693 Y109.419 E25.07181
